images/art-circle.svg

<svg width="1274px" height="1195px" viewBox="0 0 1274 1195" version="1.1" xmlns="http://www.w3.org/2000/svg" xmlns:xlink="http://www.w3.org/1999/xlink"><g id="Page-1" stroke="none" stroke-width="1" fill="none" fill-rule="evenodd" stroke-linecap="round"><path d="M822.728173,34 C606.650173,43.134 385.184173,101.983 221.492173,243.326 C112.902173,337.09 32.0671734,472.152 34.0351734,615.607 C35.4381734,717.858 78.9161734,816.959 144.392173,895.509 C209.868173,974.059 296.262173,1033.213 388.432173,1077.507 C515.423173,1138.535 657.802173,1172.959 797.875173,1157.769 C937.948173,1142.578 1074.98217,1074.143 1157.43417,959.894 C1241.78217,843.019 1262.17117,684.437 1216.61717,547.692 C1171.06117,410.947 1062.61317,298.031 930.483173,240.446 C798.353173,182.861 644.780173,179.633 507.907173,224.8" id="Stroke-1" stroke="#F4F6FA" stroke-width="67"></path></g></svg>

<svg width="1274" height="1195" xmlns="http://www.w3.org/2000/svg">
  <path d="M822.728 34c-216.078 9.134-437.544 67.983-601.236 209.326C112.902 337.09 32.067 472.152 34.035 615.607c1.403 102.251 44.881 201.352 110.357 279.902 65.476 78.55 151.87 137.704 244.04 181.998 126.991 61.028 269.37 95.452 409.443 80.262 140.073-15.191 277.107-83.626 359.56-197.875 84.347-116.875 104.736-275.457 59.182-412.202-45.556-136.745-154.004-249.661-286.134-307.246-132.13-57.585-285.703-60.813-422.576-15.646" stroke="#F4F6FA" stroke-width="67" fill="none" fill-rule="evenodd" stroke-linecap="round"/>
</svg>
